X: 24636
T: MacArthur Road
R: reel
M: 4/4
K: Emajor
|:"E"B,2B,3 C EC|"(E/C#)"G3G zFEG|"A"F2 FF FECE|"B"A2G2F2E2|
"E"B,2B,3 C EC|"(E/C#)"G3G zFEG|"A"F3F zECE|1 "B"F2G2"E"E4:|2 "B"F2G2"E"EFGA||
|:"E/G#"B2E2 B2c2|B4FECE|"A"F3F zECE|"B"A2G2F2E2|
"E"B,2B,3 C EC|"(E/C#)"G3G zFEG|"A"F3F zECE|1 "B"F2G2"E"EFGA:|2 "B"F2G2"E"E4||

